X: 02124
T: STAR LIGHT JIG
C: Bob McQuillen Feb.'76
B: Bob's Note Book 1&2 #124
R: jig
Z: 2019 John Chambers <jc:trillian.mit.edu>
M: 6/8
L: 1/8
K: A
e \
| aga ece | def ecA | aga ece | def e2e |\
| aga ece | def ecA | def ecA | BAG A2 :|
|: A \
| GAB BGB | ABc cAc | Bcd dBd | cde e2A |\
| GAB BGB | ABc cde | fga aec | BAG A2 :|
%%begintext align
%% For Marilee Hight.
%% A Star so Bright.
%% with love from Q.
%%endtext

%%sep 1 1 500

%%sep 1 1 500

